src/images/assets/moon.svg

<svg xmlns="http://www.w3.org/2000/svg" xmlns:xlink="http://www.w3.org/1999/xlink" width="200" zoomAndPan="magnify" viewBox="0 0 150 149.999998" height="200" preserveAspectRatio="xMidYMid meet" version="1.0"><defs><filter x="0%" y="0%" width="100%" height="100%" id="f6df2017b2"><feColorMatrix values="0 0 0 0 1 0 0 0 0 1 0 0 0 0 1 0 0 0 1 0" color-interpolation-filters="sRGB"/></filter><mask id="297e2469e2"><g filter="url(#f6df2017b2)"><rect x="-15" width="180" fill="#000000" y="-15" height="179.999997" fill-opacity="0.83"/></g></mask><clipPath id="b8905cfd71"><path d="M 0.421875 0.195312 L 47.269531 0.195312 L 47.269531 47.042969 L 0.421875 47.042969 Z M 0.421875 0.195312 " clip-rule="nonzero"/></clipPath><clipPath id="aaf56df281"><path d="M 23.847656 0.195312 C 10.910156 0.195312 0.421875 10.683594 0.421875 23.621094 C 0.421875 36.554688 10.910156 47.042969 23.847656 47.042969 C 36.785156 47.042969 47.269531 36.554688 47.269531 23.621094 C 47.269531 10.683594 36.785156 0.195312 23.847656 0.195312 Z M 23.847656 0.195312 " clip-rule="nonzero"/></clipPath><clipPath id="b3d4f723a9"><rect x="0" width="48" y="0" height="48"/></clipPath><mask id="d7ddef1be4"><g filter="url(#f6df2017b2)"><rect x="-15" width="180" fill="#000000" y="-15" height="179.999997" fill-opacity="0.52"/></g></mask><clipPath id="b60a86a7f4"><path d="M 0.269531 1 L 30.5625 1 L 30.5625 31.289062 L 0.269531 31.289062 Z M 0.269531 1 " clip-rule="nonzero"/></clipPath><clipPath id="3b99ccce0f"><path d="M 15.414062 1 C 7.050781 1 0.269531 7.78125 0.269531 16.144531 C 0.269531 24.507812 7.050781 31.289062 15.414062 31.289062 C 23.78125 31.289062 30.5625 24.507812 30.5625 16.144531 C 30.5625 7.78125 23.78125 1 15.414062 1 Z M 15.414062 1 " clip-rule="nonzero"/></clipPath><clipPath id="4f75420ae7"><rect x="0" width="31" y="0" height="32"/></clipPath><clipPath id="520a9a1c0d"><path d="M 90.148438 43.117188 L 150 43.117188 L 150 102.96875 L 90.148438 102.96875 Z M 90.148438 43.117188 " clip-rule="nonzero"/></clipPath><clipPath id="d04a5a653c"><path d="M 120.074219 43.117188 C 103.546875 43.117188 90.148438 56.515625 90.148438 73.042969 C 90.148438 89.570312 103.546875 102.96875 120.074219 102.96875 C 136.601562 102.96875 150 89.570312 150 73.042969 C 150 56.515625 136.601562 43.117188 120.074219 43.117188 Z M 120.074219 43.117188 " clip-rule="nonzero"/></clipPath><mask id="b91a3b19de"><g filter="url(#f6df2017b2)"><rect x="-15" width="180" fill="#000000" y="-15" height="179.999997" fill-opacity="0.76"/></g></mask><clipPath id="736dfc2c9e"><path d="M 0.6875 0.421875 L 32.507812 0.421875 L 32.507812 31.28125 L 0.6875 31.28125 Z M 0.6875 0.421875 " clip-rule="nonzero"/></clipPath><clipPath id="ec1d721318"><path d="M 16.546875 0.421875 C 7.785156 0.421875 0.6875 7.332031 0.6875 15.851562 C 0.6875 24.375 7.785156 31.28125 16.546875 31.28125 C 25.304688 31.28125 32.40625 24.375 32.40625 15.851562 C 32.40625 7.332031 25.304688 0.421875 16.546875 0.421875 Z M 16.546875 0.421875 " clip-rule="nonzero"/></clipPath><clipPath id="abf6172481"><rect x="0" width="33" y="0" height="32"/></clipPath></defs><g mask="url(#297e2469e2)"><g transform="matrix(1, 0, 0, 1, -0.000000000000000028, 26)"><g clip-path="url(#b3d4f723a9)"><g clip-path="url(#b8905cfd71)"><g clip-path="url(#aaf56df281)"><path fill="#d9d9d9" d="M 0.421875 0.195312 L 47.269531 0.195312 L 47.269531 47.042969 L 0.421875 47.042969 Z M 0.421875 0.195312 " fill-opacity="1" fill-rule="nonzero"/></g></g></g></g></g><g mask="url(#d7ddef1be4)"><g transform="matrix(1, 0, 0, 1, 47, 14)"><g clip-path="url(#4f75420ae7)"><g clip-path="url(#b60a86a7f4)"><g clip-path="url(#3b99ccce0f)"><path fill="#d9d9d9" d="M 0.269531 1 L 30.5625 1 L 30.5625 31.289062 L 0.269531 31.289062 Z M 0.269531 1 " fill-opacity="1" fill-rule="nonzero"/></g></g></g></g></g><g clip-path="url(#520a9a1c0d)"><g clip-path="url(#d04a5a653c)"><path fill="#e5e5e5" d="M 90.148438 43.117188 L 150 43.117188 L 150 102.96875 L 90.148438 102.96875 Z M 90.148438 43.117188 " fill-opacity="1" fill-rule="nonzero"/></g></g><g mask="url(#b91a3b19de)"><g transform="matrix(1, 0, 0, 1, 14, 103)"><g clip-path="url(#abf6172481)"><g clip-path="url(#736dfc2c9e)"><g clip-path="url(#ec1d721318)"><path fill="#d9d9d9" d="M 0.6875 0.421875 L 32.390625 0.421875 L 32.390625 31.28125 L 0.6875 31.28125 Z M 0.6875 0.421875 " fill-opacity="1" fill-rule="nonzero"/></g></g></g></g></g></svg>

<svg xmlns="http://www.w3.org/2000/svg" width="200" viewBox="0 0 150 150" height="200" version="1.0"><defs><clipPath id="i"><path d="M15.414 1C7.051 1 .27 7.781.27 16.145c0 8.363 6.78 15.144 15.144 15.144 8.367 0 15.149-6.781 15.149-15.144C30.563 7.78 23.78 1 15.414 1Zm0 0"/></clipPath><clipPath id="m"><path d="M0 0h33v32H0z"/></clipPath><clipPath id="d"><path d="M.422.195H47.27v46.848H.422Zm0 0"/></clipPath><clipPath id="e"><path d="M23.848.195C10.91.195.422 10.684.422 23.621c0 12.934 10.488 23.422 23.426 23.422 12.937 0 23.422-10.488 23.422-23.422C47.27 10.684 36.785.195 23.848.195Zm0 0"/></clipPath><clipPath id="c"><path d="M0 0h48v48H0z"/></clipPath><clipPath id="o"><path d="M16.547.422C7.785.422.687 7.332.687 15.852c0 8.523 7.098 15.43 15.86 15.43 8.758 0 15.86-6.907 15.86-15.43 0-8.52-7.102-15.43-15.86-15.43Zm0 0"/></clipPath><clipPath id="h"><path d="M.27 1h30.293v30.29H.27Zm0 0"/></clipPath><clipPath id="n"><path d="M.688.422h31.82v30.86H.688Zm0 0"/></clipPath><clipPath id="g"><path d="M0 0h31v32H0z"/></clipPath><clipPath id="j"><path d="M90.148 43.117H150v59.852H90.148Zm0 0"/></clipPath><clipPath id="k"><path d="M120.074 43.117c-16.527 0-29.926 13.399-29.926 29.926s13.399 29.926 29.926 29.926c16.528 0 29.926-13.399 29.926-29.926s-13.398-29.926-29.926-29.926Zm0 0"/></clipPath><mask id="l"><g filter="url(#a)"><path fill-opacity=".76" d="M-15-15h180v180H-15z"/></g></mask><mask id="b"><g filter="url(#a)"><path fill-opacity=".83" d="M-15-15h180v180H-15z"/></g></mask><mask id="f"><g filter="url(#a)"><path fill-opacity=".52" d="M-15-15h180v180H-15z"/></g></mask><filter x="0%" y="0%" width="100%" height="100%" id="a"><feColorMatrix values="0 0 0 0 1 0 0 0 0 1 0 0 0 0 1 0 0 0 1 0" color-interpolation-filters="sRGB"/></filter></defs><g mask="url(#b)"><g clip-path="url(#c)" transform="translate(0 26)"><g clip-path="url(#d)"><g clip-path="url(#e)"><path fill="#d9d9d9" d="M.422.195H47.27v46.848H.422Zm0 0"/></g></g></g></g><g mask="url(#f)"><g clip-path="url(#g)" transform="translate(47 14)"><g clip-path="url(#h)"><g clip-path="url(#i)"><path fill="#d9d9d9" d="M.27 1h30.293v30.29H.27Zm0 0"/></g></g></g></g><g clip-path="url(#j)"><g clip-path="url(#k)"><path fill="#e5e5e5" d="M90.148 43.117H150v59.852H90.148Zm0 0"/></g></g><g mask="url(#l)"><g clip-path="url(#m)" transform="translate(14 103)"><g clip-path="url(#n)"><g clip-path="url(#o)"><path fill="#d9d9d9" d="M.688.422H32.39v30.86H.688Zm0 0"/></g></g></g></g></svg>
